Simply-Blue-Circles/scalable/apps/utilities-terminal.svg

<svg xmlns="http://www.w3.org/2000/svg" width="48" height="48" viewBox="0 0 12.7 12.7"><path fill="#2c89a0" d="M6.344.073a6.29 6.29 0 0 0-6.29 6.29 6.29 6.29 0 0 0 6.29 6.288 6.29 6.29 0 0 0 6.29-6.289 6.29 6.29 0 0 0-6.29-6.29zm-.018.936a5.407 5.407 0 0 1 5.407 5.407 5.407 5.407 0 0 1-5.407 5.407A5.407 5.407 0 0 1 .92 6.416 5.407 5.407 0 0 1 6.326 1.01zM3.498 3.728a.339.528 45 0 0-.569.816l1.787 1.787L2.929 8.12a.528.339 45 1 0 .746.746L5.88 6.66a.528.339 45 0 0 .053-.086.528.339 45 0 0 .001-.001.184.33 0 0 0 .063-.247.184.33 0 0 0-.075-.266.339.528 45 0 0-.042-.059L3.675 3.798a.339.528 45 0 0-.177-.07zM6.461 7.68a.339.528 0 1 0 0 1.055h3.117a.339.528 0 0 0 0-1.055H6.46z"/></svg>

<?xml version="1.0" encoding="UTF-8" standalone="no"?>
<svg
   xmlns:dc="http://purl.org/dc/elements/1.1/"
   xmlns:cc="http://creativecommons.org/ns#"
   xmlns:rdf="http://www.w3.org/1999/02/22-rdf-syntax-ns#"
   xmlns:svg="http://www.w3.org/2000/svg"
   xmlns="http://www.w3.org/2000/svg"
   xmlns:sodipodi="http://sodipodi.sourceforge.net/DTD/sodipodi-0.dtd"
   xmlns:inkscape="http://www.inkscape.org/namespaces/inkscape"
   width="48"
   height="48"
   viewBox="0 0 12.7 12.7"
   version="1.1"
   id="svg4"
   sodipodi:docname="utilities-terminal.svg"
   inkscape:version="0.92.4 (5da689c313, 2019-01-14)">
  <metadata
     id="metadata10">
    <rdf:RDF>
      <cc:Work
         rdf:about="">
        <dc:format>image/svg+xml</dc:format>
        <dc:type
           rdf:resource="http://purl.org/dc/dcmitype/StillImage" />
        <dc:title></dc:title>
      </cc:Work>
    </rdf:RDF>
  </metadata>
  <defs
     id="defs8" />
  <sodipodi:namedview
     pagecolor="#ffffff"
     bordercolor="#666666"
     borderopacity="1"
     objecttolerance="10"
     gridtolerance="10"
     guidetolerance="10"
     inkscape:pageopacity="0"
     inkscape:pageshadow="2"
     inkscape:window-width="1087"
     inkscape:window-height="480"
     id="namedview6"
     showgrid="false"
     inkscape:zoom="4.9166667"
     inkscape:cx="2.1355932"
     inkscape:cy="24"
     inkscape:window-x="0"
     inkscape:window-y="25"
     inkscape:window-maximized="0"
     inkscape:current-layer="svg4" />
  <path
     d="m 6.344,0.073 a 6.29,6.29 0 0 0 -6.29,6.29 6.29,6.29 0 0 0 6.29,6.288 6.29,6.29 0 0 0 6.29,-6.289 6.29,6.29 0 0 0 -6.29,-6.29 z M 6.326,1.009 A 5.407,5.407 0 0 1 11.733,6.416 5.407,5.407 0 0 1 6.326,11.823 5.407,5.407 0 0 1 0.92,6.416 5.407,5.407 0 0 1 6.326,1.01 Z M 3.498,3.728 A 0.339,0.528 45 0 0 2.929,4.544 L 4.716,6.331 2.929,8.12 A 0.528,0.339 45 1 0 3.675,8.866 L 5.88,6.66 A 0.528,0.339 45 0 0 5.933,6.574 0.528,0.339 45 0 0 5.934,6.573 0.184,0.33 0 0 0 5.997,6.326 0.184,0.33 0 0 0 5.922,6.06 0.339,0.528 45 0 0 5.88,6.001 L 3.675,3.798 A 0.339,0.528 45 0 0 3.498,3.728 Z M 6.461,7.68 a 0.339,0.528 0 1 0 0,1.055 h 3.117 a 0.339,0.528 0 0 0 0,-1.055 H 6.46 Z"
     id="path2"
     inkscape:connector-curvature="0"
     style="fill:#2c89a0" />
</svg>
